X:84
T: Fuenf Soehne
N: A0095
O: Europa, Mitteleuropa, Deutschland
N: Mitgetheilt aus Westfalen durch Freih. W. v. Haxthausen in None's
N: Anz. 1838 Sp.34, aus einer Hs. des 16. Jahrh.
R: Romanze, Ballade, Lied
M: 3/4
L: 1/8
K: D
A,2 | D2D2D2 | D2E2=F2 | G2E2E2 | E4
A,2 | D4D2 | =F2E2DD | A4A2 | A4
A2 | G2G2G2 | =F2F2ED | A6 | A,4
A2 | A2G2A2 | A2G2A2 | =c2_B2A2 | G2A2G2 | =F4
FF | =F2F2F2 | =F2E2D2 | A6 | D4

